src/assets/duotone/HomeWifi.svg

<svg width="24" height="24" viewBox="0 0 24 24"  xmlns="http://www.w3.org/2000/svg">
<path opacity="0.4" d="M10.0698 2.81984L3.13979 8.36983C2.35979 8.98983 1.85978 10.2999 2.02978 11.2799L3.35976 19.2398C3.59976 20.6598 4.95977 21.8098 6.39977 21.8098H17.5998C19.0298 21.8098 20.3998 20.6498 20.6398 19.2398L21.9698 11.2799C22.1298 10.2999 21.6298 8.98983 20.8598 8.36983L13.9298 2.82985C12.8598 1.96985 11.1298 1.96984 10.0698 2.81984Z" />
<path d="M14.12 15.1301C13.93 15.1301 13.7501 15.0601 13.6001 14.9201C12.6301 13.9901 11.3701 13.9901 10.3901 14.9201C10.0901 15.2101 9.62004 15.2002 9.33004 14.9002C9.04004 14.6002 9.05006 14.1302 9.35006 13.8402C10.9001 12.3502 13.0701 12.3502 14.6301 13.8402C14.9301 14.1302 14.94 14.6002 14.65 14.9002C14.52 15.0502 14.32 15.1301 14.12 15.1301Z" />
<path d="M16.2399 13.0098C16.0499 13.0098 15.8599 12.9398 15.7199 12.7998C15.2499 12.3398 14.7199 11.9698 14.1599 11.6998C12.7599 11.0298 11.2299 11.0298 9.83988 11.6998C9.27988 11.9698 8.75988 12.3398 8.27988 12.7998C7.98988 13.0898 7.50988 13.0898 7.21988 12.7898C6.92988 12.4898 6.93989 12.0198 7.22989 11.7298C7.81989 11.1498 8.47989 10.6898 9.18989 10.3498C10.9999 9.47977 12.9999 9.47977 14.7999 10.3498C15.5099 10.6898 16.1699 11.1498 16.7599 11.7298C17.0599 12.0198 17.0599 12.4898 16.7699 12.7898C16.6299 12.9298 16.4399 13.0098 16.2399 13.0098Z" />
<path d="M12.0001 17.5003C11.7401 17.5003 11.4901 17.4003 11.2901 17.2103C10.9001 16.8203 10.9001 16.1903 11.2901 15.8003C11.6801 15.4103 12.32 15.4103 12.71 15.8003C13.1 16.1903 13.1 16.8203 12.71 17.2103C12.51 17.4003 12.2601 17.5003 12.0001 17.5003Z" />
</svg>

<?xml version="1.0" encoding="UTF-8"?>
<svg width="24" height="24" viewBox="0 0 24 24" xmlns="http://www.w3.org/2000/svg">
 <path d="m10.07 2.8198-6.93 5.55c-0.78 0.62-1.28 1.9301-1.11 2.9101l1.33 7.9599c0.24 1.42 1.6 2.57 3.04 2.57h11.2c1.43 0 2.8-1.16 3.04-2.57l1.33-7.9599c0.16-0.98-0.34-2.2901-1.11-2.9101l-6.93-5.54c-1.07-0.86-2.8-0.86001-3.86-0.01001z" opacity=".4"/>
 <path d="m14.12 15.13c-0.19 0-0.3699-0.07-0.5199-0.21-0.97-0.93-2.23-0.93-3.21 0-0.3 0.29-0.77006 0.2801-1.0601-0.0199s-0.27998-0.77 0.02002-1.06c1.55-1.49 3.72-1.49 5.28 0 0.3 0.29 0.3099 0.76 0.0199 1.06-0.13 0.15-0.33 0.2299-0.53 0.2299z"/>
 <path d="m16.24 13.01c-0.19 0-0.38-0.07-0.52-0.21-0.47-0.46-1-0.83-1.56-1.1-1.4-0.67-2.93-0.67-4.32 0-0.56 0.27-1.08 0.64-1.56 1.1-0.29 0.29-0.77 0.29-1.06-0.01s-0.27999-0.77 0.01001-1.06c0.59-0.58 1.25-1.04 1.96-1.38 1.81-0.87003 3.81-0.87003 5.61 0 0.71 0.34 1.37 0.8 1.96 1.38 0.3 0.29 0.3 0.76 0.01 1.06-0.14 0.14-0.33 0.22-0.53 0.22z"/>
 <path d="m12 17.5c-0.26 0-0.51-0.1-0.71-0.29-0.39-0.39-0.39-1.02 0-1.41s1.0299-0.39 1.4199 0 0.39 1.02 0 1.41c-0.2 0.19-0.4499 0.29-0.7099 0.29z"/>
</svg>
